;FLAVOR:Marlin
;TIME:6280
;Filament used: 7.8384m
;Layer height: 0.32
;MINX:63.506
;MINY:63.506
;MINZ:0.2
;MAXX:171.491
;MAXY:171.495
;MAXZ:24.84
;TARGET_MACHINE.NAME:Creality Ender-3
;Generated with Cura_SteamEngine 5.7.0
M140 S60
M105
M190 S60
M104 S195
M105
M109 S195
M82 ;absolute extrusion mode
; Ender 3 Custom Start G-code
G92 E0 ; Reset Extruder
G28 ; Home all axes
G1 Z2.0 F3000 ; Move Z Axis up little to prevent scratching of Heat Bed
G1 X0.1 Y20 Z0.3 F5000.0 ; Move to start position
G1 X0.1 Y200.0 Z0.3 F1500.0 E15 ; Draw the first line
G1 X0.4 Y200.0 Z0.3 F5000.0 ; Move to side a little
G1 X0.4 Y20 Z0.3 F1500.0 E30 ; Draw the second line
G92 E0 ; Reset Extruder
G1 Z2.0 F3000 ; Move Z Axis up little to prevent scratching of Heat Bed
G1 X5 Y20 Z0.3 F5000.0 ; Move over to prevent blob squish
G92 E0
G92 E0
G1 F2400 E-3
;LAYER_COUNT:78
;LAYER:0
M107
G0 F6000 X79.6 Y79.045 Z0.2
;TYPE:SKIRT
G1 F2400 E0
G1 F1200 X81.03 Y77.687 E0.06559
G1 X82.496 Y76.392 E0.13065
G1 X83.77 Y75.338 E0.18565
G1 X85.562 Y73.97 E0.26063
G1 X87.018 Y72.938 E0.31999
G1 X88.58 Y71.908 E0.38222
G1 X89.916 Y71.092 E0.43429
G1 X91.437 Y70.218 E0.49263
G1 X91.789 Y70.025 E0.50598
G1 X93.365 Y69.204 E0.56509
G1 X95.013 Y68.415 E0.62586
G1 X96.384 Y67.809 E0.67571
G1 X98.016 Y67.147 E0.73429
G1 X99.844 Y66.478 E0.79903
G1 X101.86 Y65.825 E0.86952
G1 X103.602 Y65.328 E0.92977
G1 X105.111 Y64.948 E0.98152
G1 X107.212 Y64.497 E1.05299
G1 X108.654 Y64.238 E1.10172
G1 X110.51 Y63.964 E1.16412
G1 X112.61 Y63.731 E1.2344
G1 X114.22 Y63.608 E1.2881
G1 X115.788 Y63.533 E1.34031
G1 X117.496 Y63.506 E1.39713
G1 X117.937 Y63.508 E1.4118
G1 X120.095 Y63.57 E1.4836
G1 X121.292 Y63.64 E1.52348
G1 X123.729 Y63.868 E1.60489
G1 X125.282 Y64.072 E1.65699
G1 X126.827 Y64.319 E1.70903
G1 X128.161 Y64.572 E1.75419
G1 X129.303 Y64.812 E1.793
G1 X130.777 Y65.166 E1.84342
G1 X132.626 Y65.673 E1.90719
G1 X134.121 Y66.13 E1.95918
G1 X135.686 Y66.663 E2.01417
G1 X137.411 Y67.313 E2.07548
G1 X137.769 Y67.456 E2.08831
G1 X139.489 Y68.191 E2.15052
G1 X141.161 Y68.971 E2.21188
G1 X143.168 Y69.998 E2.28687
G1 X144.341 Y70.652 E2.33154
G1 X145.933 Y71.605 E2.39325
G1 X147.535 Y72.635 E2.45659
G1 X148.761 Y73.48 E2.50612
G1 X150.491 Y74.76 E2.57769
G1 X151.923 Y75.904 E2.63866
G1 X153.376 Y77.147 E2.70225
G1 X154.59 Y78.263 E2.7571
G1 X155.98 Y79.627 E2.82187
G1 X157.225 Y80.935 E2.88193
G1 X158.493 Y82.36 E2.94538
G1 X159.367 Y83.403 E2.99064
G1 X160.048 Y84.256 E3.02694
G1 X160.71 Y85.128 E3.06335
G1 X161.823 Y86.671 E3.12663
G1 X162.66 Y87.909 E3.17634
G1 X163.624 Y89.436 E3.2364
G1 X164.743 Y91.363 E3.31051
G1 X165.571 Y92.922 E3.36922
G1 X166.412 Y94.636 E3.43273
G1 X166.952 Y95.825 E3.47616
G1 X167.834 Y97.971 E3.55333
G1 X168.469 Y99.692 E3.61434
G1 X168.93 Y101.068 E3.66261
G1 X169.464 Y102.846 E3.72435
G1 X170.02 Y104.98 E3.7977
G1 X170.407 Y106.738 E3.85757
G1 X170.685 Y108.209 E3.90736
G1 X171.018 Y110.373 E3.98019
G1 X171.232 Y112.211 E4.04173
G1 X171.355 Y113.662 E4.09016
G1 X171.456 Y115.572 E4.15378
G1 X171.491 Y117.301 E4.2113
G1 X171.462 Y119.254 E4.27626
G1 X171.379 Y120.999 E4.33437
G1 X171.187 Y123.258 E4.40977
G1 X171.143 Y123.664 E4.42335
G1 X170.971 Y124.983 E4.4676
G1 X170.673 Y126.875 E4.5313
G1 X170.429 Y128.166 E4.575
G1 X169.932 Y130.382 E4.65053
G1 X169.543 Y131.874 E4.70182
G1 X169.019 Y133.651 E4.76344
G1 X168.433 Y135.412 E4.82517
G1 X167.87 Y136.944 E4.87945
G1 X166.986 Y139.093 E4.95674
G1 X166.234 Y140.737 E5.01687
G1 X165.398 Y142.414 E5.07919
G1 X164.453 Y144.16 E5.14522
G1 X163.773 Y145.322 E5.19
G1 X162.64 Y147.122 E5.26074
G1 X161.585 Y148.67 E5.32305
G1 X160.708 Y149.875 E5.37262
G1 X159.621 Y151.275 E5.43157
G1 X158.201 Y152.975 E5.50525
G1 X156.979 Y154.331 E5.56596
G1 X155.704 Y155.65 E5.62697
G1 X154.388 Y156.924 E5.68789
G1 X153.219 Y157.988 E5.74047
G1 X151.698 Y159.28 E5.80685
G1 X150.169 Y160.484 E5.87157
G1 X148.719 Y161.549 E5.93141
G1 X147.137 Y162.631 E5.99516
G1 X145.747 Y163.514 E6.04993
G1 X144.058 Y164.506 E6.11508
G1 X142.744 Y165.225 E6.1649
G1 X140.815 Y166.198 E6.23676
G1 X139.151 Y166.959 E6.29761
G1 X137.379 Y167.698 E6.36147
G1 X135.767 Y168.307 E6.41879
G1 X133.747 Y168.991 E6.48972
G1 X132.365 Y169.405 E6.5377
G1 X130.811 Y169.824 E6.59123
G1 X129.058 Y170.239 E6.65115
G1 X127.215 Y170.609 E6.71367
G1 X125.046 Y170.962 E6.78676
G1 X123.626 Y171.142 E6.83437
G1 X121.415 Y171.349 E6.90823
G1 X119.987 Y171.435 E6.95581
G1 X118.2 Y171.49 E7.01528
G1 X117.564 Y171.495 E7.03643
G1 X116.126 Y171.474 E7.08426
G1 X114.187 Y171.388 E7.14882
G1 X112.156 Y171.223 E7.21659
G1 X110.888 Y171.079 E7.25904
G1 X109.115 Y170.837 E7.31855
G1 X108.246 Y170.695 E7.34784
G1 X106.782 Y170.419 E7.39739
G1 X105.088 Y170.046 E7.45508
G1 X103.268 Y169.581 E7.51756
G1 X101.464 Y169.054 E7.58007
G1 X99.937 Y168.557 E7.63348
G1 X99.521 Y168.411 E7.64814
G1 X97.821 Y167.773 E7.70854
G1 X96.6 Y167.282 E7.75231
G1 X95.449 Y166.787 E7.79398
G1 X95.077 Y166.617 E7.80758
G1 X93.312 Y165.769 E7.87271
G1 X91.929 Y165.049 E7.92457
G1 X89.994 Y163.96 E7.99842
G1 X89.616 Y163.736 E8.01304
G1 X88.328 Y162.931 E8.06355
G1 X86.88 Y161.97 E8.12136
G1 X86.103 Y161.428 E8.15286
G1 X85.169 Y160.744 E8.19137
G1 X83.821 Y159.7 E8.24808
G1 X82.411 Y158.531 E8.309
G1 X80.897 Y157.19 E8.37626
G1 X79.743 Y156.096 E8.42915
G1 X78.418 Y154.749 E8.492
G1 X77.122 Y153.341 E8.55565
G1 X75.93 Y151.955 E8.61645
G1 X74.944 Y150.729 E8.66878
G1 X73.474 Y148.757 E8.75058
G1 X72.703 Y147.64 E8.79572
G1 X71.651 Y146.016 E8.86008
G1 X70.905 Y144.779 E8.90813
G1 X69.833 Y142.853 E8.98144
G1 X69.004 Y141.231 E9.04203
G1 X68.375 Y139.901 E9.09096
G1 X67.461 Y137.781 E9.16775
G1 X67.31 Y137.412 E9.18101
G1 X66.886 Y136.3 E9.22059
G1 X66.212 Y134.369 E9.28861
G1 X65.695 Y132.707 E9.34651
G1 X65.283 Y131.231 E9.39747
G1 X64.86 Y129.503 E9.45664
G1 X64.477 Y127.674 E9.5188
G1 X64.167 Y125.899 E9.57873
G1 X63.908 Y124.048 E9.64089
G1 X63.692 Y121.92 E9.71203
G1 X63.563 Y119.962 E9.7773
G1 X63.517 Y118.598 E9.82269
G1 X63.506 Y117.353 E9.8641
G1 X63.514 Y116.633 E9.88805
G1 X63.596 Y114.475 E9.95988
G1 X63.722 Y112.703 E10.01896
G1 X63.914 Y110.899 E10.0793
G1 X64.174 Y109.053 E10.14131
G1 X64.47 Y107.349 E10.19883
G1 X64.912 Y105.262 E10.26978
G1 X65.278 Y103.794 E10.3201
G1 X65.704 Y102.266 E10.37286
G1 X66.361 Y100.18 E10.4456
G1 X66.975 Y98.469 E10.50607
G1 X67.647 Y96.771 E10.5668
G1 X68.238 Y95.404 E10.61634
G1 X69.022 Y93.732 E10.67776
G1 X69.998 Y91.836 E10.74868
G1 X70.743 Y90.502 E10.7995
G1 X71.685 Y88.936 E10.86029
G1 X72.678 Y87.401 E10.92109
G1 X73.906 Y85.644 E10.99239
G1 X74.398 Y84.977 E11.01995
G1 X75 Y84.201 E11.05262
G1 X76.192 Y82.733 E11.11552
G1 X77.392 Y81.357 E11.17624
G1 X78.52 Y80.139 E11.23146
G1 X79.6 Y79.045 E11.28259
G0 F6000 X79.875 Y79.335
G1 F1200 X81.295 Y77.987 E11.34771
G1 X82.751 Y76.7 E11.41234
G1 X84.013 Y75.656 E11.46682
G1 X85.793 Y74.296 E11.54132
G1 X87.238 Y73.272 E11.60023
G1 X88.789 Y72.249 E11.66202
G1 X90.115 Y71.439 E11.7137
G1 X91.63 Y70.569 E11.77181
G1 X91.974 Y70.38 E11.78487
G1 X93.538 Y69.565 E11.84352
G1 X95.175 Y68.781 E11.90389
G1 X96.534 Y68.18 E11.95332
G1 X98.153 Y67.523 E12.01143
G1 X99.967 Y66.859 E12.07568
G1 X101.97 Y66.21 E12.14571
G1 X103.7 Y65.716 E12.20555
G1 X105.195 Y65.339 E12.25683
G1 X107.283 Y64.891 E12.32786
G1 X108.712 Y64.634 E12.37615
G1 X110.554 Y64.362 E12.43808
G1 X112.64 Y64.13 E12.50788
G1 X114.239 Y64.008 E12.56122
G1 X115.794 Y63.933 E12.613
G1 X117.494 Y63.906 E12.66955
G1 X117.926 Y63.908 E12.68392
G1 X120.072 Y63.969 E12.75532
G1 X121.255 Y64.038 E12.79474
G1 X123.677 Y64.265 E12.87565
G1 X125.219 Y64.467 E12.92737
G1 X126.753 Y64.712 E12.97904
G1 X128.079 Y64.963 E13.02393
G1 X129.21 Y65.201 E13.06237
G1 X130.671 Y65.552 E13.11234
G1 X132.509 Y66.055 E13.17572
G1 X133.992 Y66.509 E13.22731
G1 X135.545 Y67.037 E13.28186
G1 X137.262 Y67.684 E13.34289
G1 X137.612 Y67.824 E13.35543
G1 X139.32 Y68.553 E13.4172
G1 X140.979 Y69.327 E13.47808
G1 X142.973 Y70.347 E13.55258
G1 X144.136 Y70.995 E13.59686
G1 X145.717 Y71.941 E13.65814
G1 X147.308 Y72.964 E13.72105
G1 X148.523 Y73.802 E13.77014
G1 X150.241 Y75.073 E13.84122
G1 X151.663 Y76.208 E13.90173
G1 X153.105 Y77.442 E13.96486
G1 X154.31 Y78.549 E14.01928
G1 X155.69 Y79.903 E14.08358
G1 X156.926 Y81.201 E14.1432
G1 X158.186 Y82.617 E14.20624
G1 X159.054 Y83.653 E14.25119
G1 X159.735 Y84.506 E14.2875
G1 X160.386 Y85.362 E14.32327
G1 X161.492 Y86.895 E14.38614
G1 X162.322 Y88.123 E14.43544
G1 X163.278 Y89.637 E14.49499
G1 X164.39 Y91.551 E14.56861
G1 X165.212 Y93.098 E14.62688
G1 X166.048 Y94.801 E14.68998
G1 X166.582 Y95.977 E14.73294
G1 X167.459 Y98.109 E14.80961
G1 X168.09 Y99.819 E14.87024
G1 X168.547 Y101.183 E14.91808
G1 X169.077 Y102.947 E14.97934
G1 X169.629 Y105.066 E15.05217
G1 X170.014 Y106.812 E15.11164
G1 X170.29 Y108.27 E15.161
G1 X170.621 Y110.419 E15.23331
G1 X170.833 Y112.245 E15.29446
G1 X170.956 Y113.696 E15.34289
G1 X171.056 Y115.58 E15.40564
G1 X171.091 Y117.295 E15.46269
G1 X171.062 Y119.235 E15.52722
G1 X170.98 Y120.965 E15.58483
G1 X170.789 Y123.215 E15.65993
G1 X170.746 Y123.612 E15.67321
G1 X170.576 Y124.921 E15.71712
G1 X170.28 Y126.801 E15.78042
G1 X170.039 Y128.078 E15.82364
G1 X169.545 Y130.281 E15.89873
G1 X169.159 Y131.761 E15.9496
G1 X168.639 Y133.525 E16.01077
G1 X168.058 Y135.274 E16.07207
G1 X167.5 Y136.792 E16.12586
G1 X166.622 Y138.927 E16.20264
G1 X165.876 Y140.559 E16.26232
G1 X165.046 Y142.224 E16.3242
G1 X164.108 Y143.958 E16.38977
G1 X163.435 Y145.109 E16.43412
G1 X162.309 Y146.897 E16.5044
G1 X161.261 Y148.435 E16.5663
G1 X160.392 Y149.63 E16.61544
G1 X159.314 Y151.019 E16.67392
G1 X157.904 Y152.707 E16.74707
G1 X156.691 Y154.053 E16.80734
G1 X155.426 Y155.363 E16.86791
G1 X154.119 Y156.628 E16.92841
G1 X152.96 Y157.683 E16.98053
G1 X151.451 Y158.966 E17.04641
G1 X149.932 Y160.162 E17.11071
G1 X148.493 Y161.219 E17.1701
G1 X146.923 Y162.293 E17.23337
G1 X145.544 Y163.169 E17.2877
G1 X143.866 Y164.155 E17.35244
G1 X142.564 Y164.868 E17.40181
G1 X140.649 Y165.834 E17.47315
G1 X138.997 Y166.59 E17.53357
G1 X137.238 Y167.324 E17.59697
G1 X135.639 Y167.928 E17.65382
G1 X133.632 Y168.608 E17.7243
G1 X132.261 Y169.019 E17.7719
G1 X130.719 Y169.435 E17.82502
G1 X128.979 Y169.847 E17.8845
G1 X127.151 Y170.214 E17.94651
G1 X124.996 Y170.565 E18.01913
G1 X123.589 Y170.744 E18.0663
G1 X121.391 Y170.95 E18.13973
G1 X119.975 Y171.035 E18.18691
G1 X118.197 Y171.09 E18.24608
G1 X117.57 Y171.095 E18.26693
G1 X116.144 Y171.074 E18.31436
G1 X114.219 Y170.989 E18.37845
G1 X112.201 Y170.826 E18.44579
G1 X110.942 Y170.683 E18.48793
G1 X109.179 Y170.442 E18.54712
G1 X108.32 Y170.302 E18.57606
G1 X106.868 Y170.028 E18.62521
G1 X105.187 Y169.658 E18.68246
G1 X103.38 Y169.197 E18.74449
G1 X101.588 Y168.674 E18.80657
G1 X100.069 Y168.179 E18.85971
G1 X99.662 Y168.037 E18.87405
G1 X97.97 Y167.402 E18.93416
G1 X96.758 Y166.915 E18.9776
G1 X95.615 Y166.423 E19.01899
G1 X95.25 Y166.257 E19.03233
G1 X93.497 Y165.414 E19.09702
G1 X92.125 Y164.7 E19.14846
G1 X90.198 Y163.616 E19.222
G1 X89.828 Y163.397 E19.2363
G1 X88.549 Y162.598 E19.28646
G1 X87.109 Y161.642 E19.34395
G1 X86.339 Y161.105 E19.37517
G1 X85.414 Y160.428 E19.4133
G1 X84.076 Y159.392 E19.46958
G1 X82.676 Y158.232 E19.53005
G1 X81.172 Y156.9 E19.59687
G1 X80.028 Y155.816 E19.64929
G1 X78.712 Y154.478 E19.71171
G1 X77.425 Y153.08 E19.77491
G1 X76.242 Y151.704 E19.83527
G1 X75.265 Y150.49 E19.8871
G1 X73.803 Y148.53 E19.96842
G1 X73.039 Y147.423 E20.01316
G1 X71.994 Y145.809 E20.07711
G1 X71.248 Y144.572 E20.12516
G1 X70.189 Y142.671 E20.19753
G1 X69.366 Y141.06 E20.2577
G1 X68.737 Y139.73 E20.30664
G1 X67.831 Y137.63 E20.38271
G1 X67.684 Y137.27 E20.39564
G1 X67.264 Y136.168 E20.43486
G1 X66.594 Y134.25 E20.50244
G1 X66.08 Y132.6 E20.55992
G1 X65.672 Y131.136 E20.61047
G1 X65.249 Y129.408 E20.66964
G1 X64.871 Y127.605 E20.73091
G1 X64.563 Y125.844 E20.79037
G1 X64.306 Y124.008 E20.85203
G1 X64.091 Y121.894 E20.9227
G1 X63.963 Y119.948 E20.98757
G1 X63.917 Y118.594 E21.03263
G1 X63.906 Y117.358 E21.07374
G1 X63.914 Y116.648 E21.09735
G1 X63.995 Y114.503 E21.16875
G1 X64.12 Y112.745 E21.22737
G1 X64.31 Y110.955 E21.28724
G1 X64.568 Y109.121 E21.34884
G1 X64.861 Y107.432 E21.40585
G1 X65.3 Y105.359 E21.47633
G1 X65.663 Y103.901 E21.5263
G1 X66.085 Y102.386 E21.57861
G1 X66.738 Y100.315 E21.65084
G1 X67.347 Y98.616 E21.71087
G1 X68.014 Y96.93 E21.77117
G1 X68.6 Y95.574 E21.8203
G1 X69.378 Y93.915 E21.88125
G1 X70.347 Y92.031 E21.95171
G1 X71.086 Y90.708 E22.00211
G1 X72.021 Y89.153 E22.06246
G1 X73.006 Y87.63 E22.12279
G1 X74.228 Y85.881 E22.19375
G1 X74.714 Y85.222 E22.22099
G1 X75.31 Y84.453 E22.25335
G1 X76.494 Y82.996 E22.31579
G1 X77.685 Y81.629 E22.37609
G1 X78.805 Y80.42 E22.43091
G1 X79.875 Y79.335 E22.48159
G0 F6000 X80.15 Y79.625
G1 F1200 X81.56 Y78.287 E22.54624
G1 X83.006 Y77.008 E22.61045
G1 X84.256 Y75.974 E22.66441
G1 X86.024 Y74.622 E22.73843
G1 X87.458 Y73.606 E22.79689
G1 X88.997 Y72.59 E22.85822
G1 X90.314 Y71.786 E22.90954
G1 X91.822 Y70.92 E22.96738
G1 X92.159 Y70.735 E22.98017
G1 X93.711 Y69.926 E23.03838
G1 X95.337 Y69.147 E23.09835
G1 X96.684 Y68.551 E23.14734
G1 X98.291 Y67.899 E23.20502
G1 X100.09 Y67.24 E23.26874
G1 X102.08 Y66.595 E23.33832
G1 X103.798 Y66.104 E23.39775
G1 X105.279 Y65.73 E23.44855
G1 X107.354 Y65.285 E23.51914
G1 X108.77 Y65.03 E23.56699
G1 X110.598 Y64.76 E23.62845
G1 X112.67 Y64.529 E23.69779
G1 X114.258 Y64.408 E23.75076
G1 X115.8 Y64.333 E23.80211
G1 X117.492 Y64.306 E23.85839
G1 X117.915 Y64.308 E23.87246
G1 X120.049 Y64.368 E23.94347
G1 X121.218 Y64.436 E23.98241
G1 X123.625 Y64.662 E24.06282
G1 X125.156 Y64.862 E24.11418
G1 X126.679 Y65.105 E24.16547
G1 X127.997 Y65.354 E24.21009
G1 X129.117 Y65.59 E24.24815
G1 X130.565 Y65.938 E24.29769
G1 X132.392 Y66.438 E24.36069
G1 X133.863 Y66.888 E24.41185
G1 X135.404 Y67.411 E24.46598
G1 X137.113 Y68.055 E24.52672
G1 X137.455 Y68.192 E24.53897
G1 X139.151 Y68.915 E24.60029
G1 X140.797 Y69.683 E24.66071
G1 X142.778 Y70.696 E24.73471
G1 X143.931 Y71.338 E24.7786
G1 X145.501 Y72.277 E24.83945
G1 X147.081 Y73.293 E24.90193
G1 X148.285 Y74.124 E24.95058
G1 X149.992 Y75.386 E25.02119
G1 X151.403 Y76.512 E25.08123
G1 X152.834 Y77.737 E25.14388
G1 X154.03 Y78.835 E25.19788
G1 X155.4 Y80.179 E25.26172
G1 X156.627 Y81.467 E25.32088
G1 X157.879 Y82.874 E25.38353
G1 X158.741 Y83.903 E25.42817
G1 X159.422 Y84.756 E25.46447
G1 X160.062 Y85.596 E25.4996
G1 X161.161 Y87.119 E25.56207
G1 X161.984 Y88.337 E25.61096
G1 X162.932 Y89.838 E25.67
G1 X164.037 Y91.739 E25.74314
G1 X164.853 Y93.274 E25.80096
G1 X165.684 Y94.966 E25.86365
G1 X166.212 Y96.129 E25.90614
G1 X167.084 Y98.247 E25.98232
G1 X167.711 Y99.946 E26.04255
G1 X168.164 Y101.298 E26.08998
G1 X168.69 Y103.048 E26.15075
G1 X169.238 Y105.152 E26.22307
G1 X169.621 Y106.887 E26.28216
G1 X169.895 Y108.331 E26.33105
G1 X170.224 Y110.465 E26.40286
G1 X170.434 Y112.279 E26.4636
G1 X170.557 Y113.73 E26.51203
G1 X170.656 Y115.588 E26.57392
G1 X170.691 Y117.289 E26.63051
G1 X170.662 Y119.216 E26.69461
G1 X170.581 Y120.931 E26.75171
G1 X170.391 Y123.172 E26.82651
G1 X170.349 Y123.561 E26.83953
G1 X170.181 Y124.859 E26.88306
G1 X169.887 Y126.727 E26.94595
G1 X169.649 Y127.99 E26.9887
G1 X169.158 Y130.18 E27.06335
G1 X168.775 Y131.648 E27.11381
G1 X168.259 Y133.399 E27.17452
G1 X167.683 Y135.136 E27.23539
G1 X167.128 Y136.646 E27.2889
G1 X166.998 Y136.978 E27.30076
G1 X166.258 Y138.761 E27.36496
G1 X165.518 Y140.381 E27.4242
G1 X164.694 Y142.034 E27.48563
G1 X163.763 Y143.756 E27.55074
G1 X163.096 Y144.896 E27.59467
