;FLAVOR:Marlin
;TIME:6769
;Filament used: 4.8603m
;Layer height: 0.2
;MINX:69.006
;MINY:69.007
;MINZ:0.2
;MAXX:165.991
;MAXY:165.993
;MAXZ:5
;TARGET_MACHINE.NAME:Creality Ender-3
;Generated with Cura_SteamEngine 5.7.0
M140 S60
M105
M190 S60
M104 S195
M105
M109 S195
M82 ;absolute extrusion mode
; Ender 3 Custom Start G-code
G92 E0 ; Reset Extruder
G28 ; Home all axes
G1 Z2.0 F3000 ; Move Z Axis up little to prevent scratching of Heat Bed
G1 X0.1 Y20 Z0.3 F5000.0 ; Move to start position
G1 X0.1 Y200.0 Z0.3 F1500.0 E15 ; Draw the first line
G1 X0.4 Y200.0 Z0.3 F5000.0 ; Move to side a little
G1 X0.4 Y20 Z0.3 F1500.0 E30 ; Draw the second line
G92 E0 ; Reset Extruder
G1 Z2.0 F3000 ; Move Z Axis up little to prevent scratching of Heat Bed
G1 X5 Y20 Z0.3 F5000.0 ; Move over to prevent blob squish
G92 E0
G92 E0
G1 F2400 E-3
;LAYER_COUNT:25
;LAYER:0
M107
G0 F6000 X83.739 Y82.686 Z0.2
;TYPE:SKIRT
G1 F2400 E0
G1 F1200 X84.611 Y81.862 E0.0399
G1 X85.348 Y81.194 E0.07299
G1 X86.215 Y80.447 E0.11105
G1 X87.232 Y79.615 E0.15475
G1 X88.074 Y78.956 E0.19032
G1 X89.536 Y77.879 E0.25071
G1 X90.235 Y77.395 E0.27899
G1 X91.556 Y76.53 E0.33151
G1 X92.501 Y75.947 E0.36844
G1 X93.482 Y75.372 E0.40626
G1 X94.655 Y74.725 E0.45081
G1 X95.033 Y74.526 E0.46502
G1 X97.157 Y73.48 E0.54377
G1 X98.239 Y72.996 E0.58319
G1 X99.499 Y72.47 E0.62861
G1 X100.961 Y71.912 E0.68065
G1 X101.982 Y71.556 E0.71662
G1 X102.772 Y71.297 E0.74427
G1 X104.197 Y70.866 E0.79378
G1 X105.858 Y70.426 E0.85093
G1 X107.403 Y70.073 E0.90365
G1 X108.981 Y69.761 E0.95715
G1 X110.66 Y69.49 E1.01371
G1 X111.929 Y69.325 E1.05628
G1 X112.818 Y69.231 E1.08601
G1 X114.004 Y69.134 E1.12559
G1 X115.34 Y69.055 E1.1701
G1 X117.258 Y69.007 E1.23391
G1 X118.931 Y69.025 E1.28956
G1 X120.343 Y69.089 E1.33657
G1 X122.014 Y69.217 E1.39231
G1 X123.681 Y69.404 E1.4481
G1 X125.477 Y69.668 E1.50848
G1 X126.926 Y69.933 E1.55748
G1 X128.413 Y70.249 E1.60804
G1 X129.392 Y70.484 E1.64152
G1 X130.369 Y70.744 E1.67515
G1 X131.741 Y71.147 E1.72271
G1 X133.093 Y71.58 E1.76993
G1 X134.578 Y72.112 E1.82239
G1 X135.675 Y72.539 E1.86155
G1 X136.1 Y72.715 E1.87685
G1 X137.874 Y73.5 E1.94137
G1 X139.345 Y74.208 E1.99567
G1 X140.619 Y74.872 E2.04345
G1 X142.112 Y75.717 E2.10051
G1 X143.387 Y76.496 E2.1502
G1 X144.686 Y77.348 E2.20187
G1 X145.93 Y78.212 E2.25225
G1 X147.019 Y79.023 E2.29741
G1 X147.854 Y79.678 E2.33271
G1 X148.602 Y80.295 E2.36496
G1 X150.079 Y81.583 E2.43014
G1 X150.653 Y82.109 E2.45603
G1 X151.657 Y83.074 E2.50235
G1 X153.018 Y84.484 E2.56753
G1 X153.347 Y84.842 E2.5837
G1 X154.641 Y86.33 E2.64929
G1 X155.377 Y87.224 E2.6878
G1 X156.524 Y88.712 E2.75029
G1 X157.443 Y90.003 E2.803
G1 X158.309 Y91.306 E2.85503
G1 X159.351 Y93.003 E2.92127
G1 X159.968 Y94.094 E2.96296
G1 X160.902 Y95.873 E3.02978
G1 X161.451 Y97.007 E3.07169
G1 X161.624 Y97.386 E3.08555
G1 X162.241 Y98.811 E3.13719
G1 X162.799 Y100.2 E3.18698
G1 X163.344 Y101.703 E3.24016
G1 X163.835 Y103.211 E3.2929
G1 X164.298 Y104.801 E3.34798
G1 X164.532 Y105.675 E3.37808
G1 X164.999 Y107.741 E3.44853
G1 X165.246 Y109.019 E3.49182
G1 X165.521 Y110.782 E3.55117
G1 X165.775 Y112.936 E3.6233
G1 X165.814 Y113.343 E3.6369
G1 X165.916 Y114.75 E3.68382
G1 X165.976 Y116.187 E3.73166
G1 X165.991 Y117.299 E3.76865
G1 X165.966 Y119.037 E3.82646
G1 X165.895 Y120.548 E3.87677
G1 X165.77 Y122.078 E3.92783
G1 X165.565 Y123.89 E3.98848
G1 X165.337 Y125.429 E4.04023
G1 X165.006 Y127.233 E4.10123
G1 X164.702 Y128.609 E4.1481
G1 X164.306 Y130.176 E4.20186
G1 X163.729 Y132.133 E4.26972
G1 X163.193 Y133.74 E4.32606
G1 X162.804 Y134.796 E4.36349
G1 X162.277 Y136.113 E4.41067
G1 X162.11 Y136.507 E4.4249
G1 X161.407 Y138.078 E4.48215
G1 X160.941 Y139.055 E4.51815
G1 X160.75 Y139.435 E4.5323
G1 X159.755 Y141.295 E4.60246
G1 X159.262 Y142.15 E4.63528
G1 X158.505 Y143.389 E4.68357
G1 X158.289 Y143.726 E4.69689
G1 X157.307 Y145.196 E4.75569
G1 X157.054 Y145.559 E4.7704
G1 X156.486 Y146.337 E4.80244
G1 X155.426 Y147.717 E4.86032
G1 X154.438 Y148.917 E4.91202
G1 X153.719 Y149.748 E4.94857
G1 X153.017 Y150.519 E4.98325
G1 X152.319 Y151.255 E5.01698
G1 X151.093 Y152.472 E5.07444
G1 X149.947 Y153.534 E5.12641
G1 X148.474 Y154.815 E5.19133
G1 X147.356 Y155.713 E5.23903
G1 X145.78 Y156.894 E5.30453
G1 X144.639 Y157.686 E5.35073
G1 X143.002 Y158.748 E5.41563
G1 X141.866 Y159.427 E5.45965
G1 X140.557 Y160.161 E5.50956
G1 X139.365 Y160.781 E5.55425
G1 X137.626 Y161.616 E5.61841
G1 X137.242 Y161.79 E5.63243
G1 X135.475 Y162.541 E5.69629
G1 X134.524 Y162.908 E5.73019
G1 X133.572 Y163.254 E5.76388
G1 X132.365 Y163.66 E5.80624
G1 X130.604 Y164.192 E5.86743
G1 X129.245 Y164.552 E5.91418
G1 X128.528 Y164.724 E5.93871
G1 X127.064 Y165.039 E5.98852
G1 X125.638 Y165.306 E6.03677
G1 X125.215 Y165.375 E6.05102
G1 X123.315 Y165.645 E6.11485
G1 X122.245 Y165.761 E6.15065
G1 X120.025 Y165.929 E6.2247
G1 X118.68 Y165.98 E6.26947
G1 X117.274 Y165.993 E6.31623
G1 X115.781 Y165.964 E6.3659
G1 X114.046 Y165.867 E6.42369
G1 X112.294 Y165.714 E6.48219
G1 X111.516 Y165.624 E6.50824
G1 X110.455 Y165.478 E6.54386
G1 X109.232 Y165.282 E6.58506
G1 X107.443 Y164.94 E6.64564
G1 X105.869 Y164.581 E6.69933
G1 X104.942 Y164.343 E6.73116
G1 X104.033 Y164.089 E6.76255
G1 X102.761 Y163.699 E6.80681
G1 X101.053 Y163.114 E6.86685
G1 X100.059 Y162.748 E6.90208
G1 X99.682 Y162.6 E6.91555
G1 X97.738 Y161.786 E6.98565
G1 X96.704 Y161.309 E7.02353
G1 X95.247 Y160.588 E7.07759
G1 X94.258 Y160.064 E7.11482
G1 X93.63 Y159.713 E7.13875
G1 X92.55 Y159.083 E7.18034
G1 X91.216 Y158.254 E7.23257
G1 X90.514 Y157.793 E7.26051
G1 X89.59 Y157.156 E7.29783
G1 X88.522 Y156.385 E7.34165
G1 X87.444 Y155.558 E7.38684
G1 X87.073 Y155.259 E7.40268
G1 X85.397 Y153.847 E7.47557
G1 X84.645 Y153.17 E7.50923
G1 X83.228 Y151.804 E7.57469
G1 X82.072 Y150.612 E7.62992
G1 X81.152 Y149.6 E7.67541
G1 X79.827 Y148.035 E7.74361
G1 X79.013 Y147.002 E7.78735
G1 X78.466 Y146.273 E7.81767
G1 X77.859 Y145.433 E7.85214
G1 X77.149 Y144.394 E7.89399
G1 X76.047 Y142.668 E7.9621
G1 X75.401 Y141.569 E8.0045
G1 X74.521 Y139.961 E8.06547
G1 X73.839 Y138.593 E8.11631
G1 X73.139 Y137.079 E8.17179
G1 X72.391 Y135.302 E8.23591
G1 X71.987 Y134.238 E8.27377
G1 X71.492 Y132.814 E8.32391
G1 X70.999 Y131.236 E8.37889
G1 X70.583 Y129.747 E8.43032
G1 X70.14 Y127.916 E8.49297
G1 X69.824 Y126.371 E8.54542
G1 X69.532 Y124.587 E8.60555
G1 X69.343 Y123.185 E8.6526
G1 X69.186 Y121.682 E8.70286
G1 X69.075 Y120.083 E8.75617
G1 X69.007 Y117.978 E8.82622
G1 X69.006 Y117.14 E8.85409
G1 X69.04 Y115.688 E8.9024
G1 X69.061 Y115.242 E8.91725
G1 X69.216 Y112.983 E8.99256
G1 X69.341 Y111.822 E9.0314
G1 X69.557 Y110.219 E9.0852
G1 X69.875 Y108.356 E9.14806
G1 X70.174 Y106.927 E9.19662
G1 X70.586 Y105.236 E9.25451
G1 X71.019 Y103.69 E9.3079
G1 X71.587 Y101.887 E9.37078
G1 X72.026 Y100.652 E9.41437
G1 X72.603 Y99.175 E9.46711
G1 X73.355 Y97.428 E9.53037
G1 X73.893 Y96.287 E9.57233
G1 X74.616 Y94.866 E9.62536
G1 X75.432 Y93.382 E9.68169
G1 X76.396 Y91.778 E9.74393
G1 X77.294 Y90.392 E9.79886
G1 X78.216 Y89.071 E9.85244
G1 X78.998 Y88.024 E9.8959
G1 X80.256 Y86.451 E9.96289
G1 X81.423 Y85.098 E10.02232
G1 X82.395 Y84.048 E10.06991
G1 X83.739 Y82.686 E10.13355
G0 F6000 X84.014 Y82.977
G1 F1200 X84.88 Y82.158 E10.1732
G1 X85.609 Y81.497 E10.20593
G1 X86.468 Y80.757 E10.24364
G1 X87.479 Y79.93 E10.28708
G1 X88.311 Y79.278 E10.32224
G1 X89.764 Y78.208 E10.38225
G1 X90.454 Y77.73 E10.41017
G1 X91.766 Y76.87 E10.46235
G1 X92.703 Y76.292 E10.49897
G1 X93.675 Y75.722 E10.53644
G1 X94.841 Y75.079 E10.58073
G1 X95.21 Y74.885 E10.5946
G1 X97.32 Y73.845 E10.67284
G1 X98.393 Y73.365 E10.71193
G1 X99.642 Y72.844 E10.75695
G1 X101.093 Y72.29 E10.8086
G1 X102.107 Y71.936 E10.84433
G1 X102.888 Y71.68 E10.87166
G1 X104.3 Y71.253 E10.92073
G1 X105.947 Y70.816 E10.9774
G1 X107.481 Y70.465 E11.02974
G1 X109.045 Y70.156 E11.08276
G1 X110.712 Y69.887 E11.13893
G1 X111.971 Y69.723 E11.18115
G1 X112.851 Y69.63 E11.21059
G1 X114.028 Y69.533 E11.24987
G1 X115.35 Y69.455 E11.29391
G1 X117.254 Y69.407 E11.35726
G1 X118.913 Y69.425 E11.41244
G1 X120.313 Y69.488 E11.45905
G1 X121.969 Y69.614 E11.51429
G1 X123.623 Y69.8 E11.56965
G1 X125.405 Y70.061 E11.62955
G1 X126.843 Y70.324 E11.67817
G1 X128.32 Y70.638 E11.7284
G1 X129.289 Y70.87 E11.76154
G1 X130.256 Y71.128 E11.79482
G1 X131.619 Y71.528 E11.84207
G1 X132.958 Y71.957 E11.88883
G1 X134.433 Y72.485 E11.94094
G1 X135.522 Y72.909 E11.97981
G1 X135.938 Y73.081 E11.99478
G1 X137.712 Y73.866 E12.0593
G1 X139.16 Y74.563 E12.11275
G1 X140.422 Y75.22 E12.16008
G1 X141.904 Y76.058 E12.2167
G1 X143.168 Y76.83 E12.26596
G1 X144.458 Y77.676 E12.31727
G1 X145.691 Y78.533 E12.36722
G1 X146.772 Y79.338 E12.41204
G1 X147.599 Y79.986 E12.44699
G1 X148.339 Y80.597 E12.47891
G1 X149.809 Y81.878 E12.54376
G1 X150.376 Y82.397 E12.56932
G1 X151.369 Y83.352 E12.61515
G1 X152.723 Y84.754 E12.67997
G1 X153.045 Y85.105 E12.69582
G1 X154.332 Y86.584 E12.76103
G1 X155.06 Y87.468 E12.79911
G1 X156.198 Y88.944 E12.8611
G1 X157.11 Y90.224 E12.91338
G1 X157.968 Y91.515 E12.96493
G1 X159.003 Y93.2 E13.03071
G1 X159.614 Y94.28 E13.07198
G1 X160.542 Y96.047 E13.13836
G1 X161.087 Y97.173 E13.17997
G1 X161.257 Y97.545 E13.19357
G1 X161.87 Y98.96 E13.24486
G1 X162.423 Y100.337 E13.29421
G1 X162.964 Y101.827 E13.34694
G1 X163.451 Y103.323 E13.39926
G1 X163.912 Y104.905 E13.45407
G1 X164.142 Y105.763 E13.48361
G1 X164.606 Y107.817 E13.55365
G1 X164.851 Y109.081 E13.59648
G1 X165.124 Y110.829 E13.65532
G1 X165.377 Y112.974 E13.72716
G1 X165.415 Y113.372 E13.74045
G1 X165.516 Y114.767 E13.78697
G1 X165.576 Y116.192 E13.83441
G1 X165.591 Y117.293 E13.87103
G1 X165.566 Y119.018 E13.92841
G1 X165.496 Y120.516 E13.97829
G1 X165.373 Y122.033 E14.02891
G1 X165.169 Y123.831 E14.0891
G1 X164.941 Y125.37 E14.14084
G1 X164.615 Y127.147 E14.20093
G1 X164.314 Y128.511 E14.24739
G1 X163.922 Y130.063 E14.30063
G1 X163.345 Y132.02 E14.36849
G1 X162.818 Y133.602 E14.42395
G1 X162.433 Y134.647 E14.46099
G1 X161.909 Y135.957 E14.50792
G1 X161.745 Y136.344 E14.5219
G1 X161.046 Y137.906 E14.57882
G1 X160.584 Y138.875 E14.61452
G1 X160.397 Y139.246 E14.62834
G1 X159.409 Y141.095 E14.69807
G1 X158.921 Y141.941 E14.73055
G1 X158.168 Y143.173 E14.77858
G1 X157.956 Y143.504 E14.79165
G1 X156.979 Y144.967 E14.85016
G1 X156.731 Y145.323 E14.86459
G1 X156.169 Y146.093 E14.8963
G1 X155.117 Y147.463 E14.95375
G1 X154.136 Y148.655 E15.0051
G1 X153.423 Y149.479 E15.04134
G1 X152.727 Y150.244 E15.07574
G1 X152.037 Y150.971 E15.10907
G1 X150.821 Y152.179 E15.16608
G1 X149.685 Y153.232 E15.2176
G1 X148.223 Y154.503 E15.28203
G1 X147.116 Y155.393 E15.32928
G1 X145.552 Y156.565 E15.39428
G1 X144.421 Y157.35 E15.44007
G1 X142.784 Y158.412 E15.50497
G1 X141.67 Y159.078 E15.54814
G1 X140.372 Y159.806 E15.59764
G1 X139.192 Y160.42 E15.64188
G1 X137.46 Y161.252 E15.70579
G1 X137.086 Y161.422 E15.71945
G1 X135.331 Y162.168 E15.78288
G1 X134.387 Y162.532 E15.81653
G1 X133.444 Y162.875 E15.84991
G1 X132.249 Y163.277 E15.89184
G1 X130.501 Y163.805 E15.95257
G1 X129.152 Y164.163 E15.99899
G1 X128.444 Y164.333 E16.02321
G1 X126.991 Y164.646 E16.07265
G1 X125.573 Y164.911 E16.12063
G1 X125.159 Y164.979 E16.13458
G1 X123.272 Y165.247 E16.19797
G1 X122.215 Y165.362 E16.23334
G1 X120.01 Y165.529 E16.30688
G1 X118.676 Y165.58 E16.35129
G1 X117.282 Y165.593 E16.39765
G1 X115.797 Y165.564 E16.44705
G1 X115.381 Y165.547 E16.4609
G1 X114.081 Y165.469 E16.50422
G1 X112.34 Y165.317 E16.56234
G1 X111.571 Y165.228 E16.58809
G1 X110.518 Y165.083 E16.62344
G1 X109.307 Y164.889 E16.66424
G1 X107.532 Y164.55 E16.72434
G1 X105.968 Y164.193 E16.7777
G1 X105.05 Y163.958 E16.80921
G1 X104.15 Y163.706 E16.8403
G1 X102.891 Y163.321 E16.88409
G1 X101.191 Y162.739 E16.94385
G1 X100.205 Y162.376 E16.9788
G1 X99.836 Y162.231 E16.99198
G1 X97.906 Y161.423 E17.06158
G1 X96.881 Y160.95 E17.09912
G1 X95.434 Y160.234 E17.15282
G1 X94.453 Y159.715 E17.18973
G1 X93.832 Y159.368 E17.21339
G1 X92.761 Y158.743 E17.25464
G1 X91.435 Y157.919 E17.30656
G1 X90.741 Y157.464 E17.33416
G1 X89.824 Y156.832 E17.3712
G1 X88.766 Y156.068 E17.41461
G1 X87.695 Y155.246 E17.45951
G1 X87.331 Y154.953 E17.47505
G1 X85.665 Y153.55 E17.5475
G1 X84.923 Y152.882 E17.5807
G1 X83.515 Y151.525 E17.64574
G1 X82.368 Y150.343 E17.70052
G1 X81.457 Y149.341 E17.74556
G1 X80.141 Y147.787 E17.81329
G1 X79.333 Y146.762 E17.8567
G1 X78.79 Y146.039 E17.88678
G1 X78.189 Y145.207 E17.92092
G1 X77.486 Y144.179 E17.96234
G1 X76.392 Y142.465 E18.02997
G1 X75.752 Y141.377 E18.07195
G1 X74.879 Y139.782 E18.13243
G1 X74.202 Y138.425 E18.18287
G1 X73.508 Y136.924 E18.23787
G1 X72.765 Y135.16 E18.30153
G1 X72.365 Y134.107 E18.339
G1 X71.874 Y132.695 E18.38872
G1 X71.384 Y131.128 E18.44332
G1 X70.972 Y129.653 E18.49426
G1 X70.532 Y127.836 E18.55644
G1 X70.219 Y126.306 E18.60838
G1 X69.928 Y124.534 E18.66811
G1 X69.741 Y123.143 E18.71479
G1 X69.585 Y121.654 E18.76459
G1 X69.475 Y120.064 E18.8176
G1 X69.456 Y119.666 E18.83085
G1 X69.407 Y117.978 E18.88702
G1 X69.406 Y117.149 E18.91459
G1 X69.44 Y115.706 E18.9626
G1 X69.46 Y115.269 E18.97715
G1 X69.614 Y113.026 E19.05192
G1 X69.737 Y111.875 E19.09042
G1 X69.951 Y110.286 E19.14375
G1 X70.267 Y108.438 E19.20611
G1 X70.563 Y107.022 E19.25422
G1 X70.971 Y105.344 E19.31166
G1 X71.4 Y103.81 E19.36464
G1 X71.964 Y102.021 E19.42703
G1 X72.399 Y100.797 E19.47023
G1 X72.97 Y99.333 E19.5225
G1 X73.717 Y97.598 E19.58533
G1 X74.249 Y96.468 E19.62687
G1 X74.966 Y95.059 E19.67945
G1 X75.775 Y93.588 E19.73529
G1 X76.732 Y91.995 E19.79709
G1 X77.622 Y90.621 E19.85154
G1 X78.537 Y89.31 E19.90472
G1 X79.31 Y88.274 E19.94771
G1 X80.559 Y86.712 E20.01423
G1 X81.716 Y85.37 E20.07316
G1 X82.68 Y84.329 E20.12035
G1 X84.014 Y82.977 E20.18352
G0 F6000 X84.289 Y83.268
G1 F1200 X85.149 Y82.454 E20.22291
G1 X85.87 Y81.8 E20.25528
G1 X86.721 Y81.067 E20.29264
G1 X87.726 Y80.245 E20.33582
G1 X88.548 Y79.6 E20.37058
G1 X89.992 Y78.537 E20.43021
G1 X90.682 Y78.059 E20.45813
G1 X91.976 Y77.21 E20.50961
G1 X92.905 Y76.637 E20.54591
G1 X93.868 Y76.072 E20.58305
G1 X95.027 Y75.433 E20.62707
G1 X95.387 Y75.244 E20.64059
G1 X97.483 Y74.21 E20.71832
G1 X98.547 Y73.734 E20.75709
G1 X99.785 Y73.218 E20.8017
G1 X101.225 Y72.668 E20.85297
G1 X102.232 Y72.316 E20.88845
G1 X103.004 Y72.063 E20.91547
G1 X104.403 Y71.64 E20.96408
G1 X106.036 Y71.206 E21.02028
G1 X107.558 Y70.857 E21.07222
G1 X109.109 Y70.551 E21.1248
G1 X110.764 Y70.284 E21.18056
G1 X112.013 Y70.121 E21.22245
G1 X112.884 Y70.029 E21.25158
G1 X114.051 Y69.932 E21.29053
G1 X115.36 Y69.855 E21.33414
G1 X117.25 Y69.807 E21.39702
G1 X118.895 Y69.825 E21.45174
G1 X120.283 Y69.887 E21.49795
G1 X121.924 Y70.012 E21.55269
G1 X123.565 Y70.196 E21.60761
G1 X125.333 Y70.455 E21.66704
G1 X126.76 Y70.715 E21.71529
G1 X128.227 Y71.027 E21.76517
G1 X129.186 Y71.257 E21.79797
G1 X130.143 Y71.512 E21.83091
G1 X131.497 Y71.909 E21.87784
G1 X132.823 Y72.334 E21.92416
G1 X134.288 Y72.858 E21.9759
G1 X135.369 Y73.278 E22.01448
G1 X135.776 Y73.447 E22.02913
G1 X137.538 Y74.226 E22.09321
G1 X138.975 Y74.918 E22.14626
G1 X140.225 Y75.568 E22.19312
G1 X141.695 Y76.399 E22.24928
G1 X142.949 Y77.165 E22.29816
G1 X144.23 Y78.004 E22.34909
G1 X145.452 Y78.854 E22.3986
G1 X146.525 Y79.653 E22.44309
G1 X147.344 Y80.295 E22.4777
G1 X148.076 Y80.899 E22.50927
G1 X149.539 Y82.173 E22.57379
G1 X150.099 Y82.685 E22.59903
G1 X151.081 Y83.63 E22.64436
G1 X152.428 Y85.024 E22.70883
G1 X152.743 Y85.368 E22.72435
G1 X154.023 Y86.838 E22.78918
G1 X154.743 Y87.712 E22.82684
G1 X155.872 Y89.176 E22.88833
G1 X156.777 Y90.445 E22.94017
G1 X157.627 Y91.725 E22.99127
