;FLAVOR:Marlin
;TIME:8068
;Filament used: 5.40756m
;Layer height: 0.2
;MINX:89.7
;MINY:76.511
;MINZ:0.2
;MAXX:143.492
;MAXY:158.487
;MAXZ:30
;TARGET_MACHINE.NAME:Creality Ender-3
;Generated with Cura_SteamEngine 5.7.0
M140 S60
M105
M190 S60
M104 S195
M105
M109 S195
M82 ;absolute extrusion mode
; Ender 3 Custom Start G-code
G92 E0 ; Reset Extruder
G28 ; Home all axes
G1 Z2.0 F3000 ; Move Z Axis up little to prevent scratching of Heat Bed
G1 X0.1 Y20 Z0.3 F5000.0 ; Move to start position
G1 X0.1 Y200.0 Z0.3 F1500.0 E15 ; Draw the first line
G1 X0.4 Y200.0 Z0.3 F5000.0 ; Move to side a little
G1 X0.4 Y20 Z0.3 F1500.0 E30 ; Draw the second line
G92 E0 ; Reset Extruder
G1 Z2.0 F3000 ; Move Z Axis up little to prevent scratching of Heat Bed
G1 X5 Y20 Z0.3 F5000.0 ; Move over to prevent blob squish
G92 E0
G92 E0
G1 F2400 E-3
;LAYER_COUNT:150
;LAYER:0
M107
G0 F6000 X94.303 Y80.183 Z0.2
;TYPE:SKIRT
G1 F2400 E0
G1 F1200 X94.983 Y79.487 E0.03236
G1 X95.721 Y78.853 E0.06472
G1 X96.454 Y78.326 E0.09475
G1 X97.353 Y77.793 E0.12951
G1 X98.233 Y77.375 E0.16191
G1 X99.079 Y77.059 E0.19195
G1 X100.085 Y76.78 E0.22667
G1 X100.974 Y76.618 E0.25673
G1 X102.433 Y76.511 E0.30539
G1 X103.048 Y76.512 E0.32584
G1 X104.008 Y76.536 E0.35778
G1 X105.187 Y76.595 E0.39704
G1 X106.377 Y76.69 E0.43675
G1 X107.501 Y76.816 E0.47437
G1 X108.742 Y76.985 E0.51602
G1 X109.769 Y77.158 E0.55066
G1 X111.076 Y77.415 E0.59497
G1 X112.075 Y77.639 E0.62902
G1 X112.811 Y77.823 E0.65425
G1 X113.803 Y78.096 E0.68847
G1 X115.022 Y78.468 E0.73086
G1 X116.234 Y78.878 E0.77342
G1 X117.495 Y79.351 E0.81821
G1 X118.852 Y79.913 E0.86706
G1 X120.224 Y80.538 E0.91721
G1 X121.479 Y81.166 E0.96388
G1 X122.781 Y81.873 E1.01316
G1 X123.548 Y82.326 E1.04279
G1 X124.727 Y83.062 E1.08902
G1 X126.033 Y83.941 E1.14138
G1 X127.026 Y84.654 E1.18204
G1 X128.214 Y85.571 E1.23195
G1 X128.566 Y85.857 E1.24704
G1 X129.397 Y86.567 E1.28339
G1 X130.254 Y87.331 E1.32158
G1 X131.536 Y88.562 E1.38069
G1 X132.413 Y89.473 E1.42275
G1 X133.17 Y90.301 E1.46006
G1 X134.031 Y91.306 E1.50408
G1 X134.27 Y91.599 E1.51665
G1 X135.249 Y92.85 E1.56949
G1 X136.087 Y94.005 E1.61695
G1 X136.934 Y95.264 E1.66742
G1 X137.565 Y96.27 E1.70692
G1 X138.217 Y97.38 E1.74973
G1 X138.913 Y98.668 E1.79843
G1 X139.264 Y99.364 E1.82435
G1 X139.739 Y100.362 E1.86111
G1 X140.188 Y101.379 E1.89809
G1 X140.55 Y102.257 E1.92968
G1 X141.13 Y103.797 E1.98441
G1 X141.681 Y105.46 E2.04268
G1 X141.998 Y106.528 E2.07973
G1 X142.152 Y107.097 E2.09934
G1 X142.38 Y108.014 E2.13077
G1 X142.75 Y109.743 E2.18957
G1 X142.959 Y110.927 E2.22956
G1 X143.109 Y111.907 E2.26254
G1 X143.225 Y112.84 E2.29381
G1 X143.374 Y114.443 E2.34735
G1 X143.457 Y115.819 E2.3932
G1 X143.482 Y116.617 E2.41976
G1 X143.492 Y117.92 E2.4631
G1 X143.473 Y118.798 E2.49231
G1 X143.418 Y119.931 E2.53003
G1 X143.327 Y121.151 E2.57072
G1 X143.251 Y121.931 E2.59679
G1 X143.097 Y123.177 E2.63855
G1 X142.853 Y124.718 E2.69044
G1 X142.582 Y126.107 E2.73751
G1 X142.461 Y126.647 E2.75592
G1 X142.151 Y127.887 E2.79843
G1 X141.816 Y129.107 E2.84051
G1 X141.503 Y130.097 E2.87504
G1 X141.007 Y131.535 E2.92563
G1 X140.504 Y132.863 E2.97287
G1 X140.301 Y133.361 E2.99075
G1 X139.762 Y134.573 E3.03487
G1 X138.934 Y136.283 E3.09806
G1 X138.481 Y137.139 E3.13027
G1 X138.246 Y137.561 E3.14634
G1 X137.234 Y139.269 E3.21237
G1 X136.603 Y140.246 E3.25105
G1 X136.029 Y141.085 E3.28486
G1 X135.549 Y141.751 E3.31217
G1 X134.512 Y143.104 E3.36887
G1 X133.806 Y143.963 E3.40585
G1 X133.208 Y144.658 E3.43634
G1 X132.615 Y145.312 E3.46571
G1 X131.765 Y146.204 E3.50669
G1 X130.887 Y147.068 E3.54766
G1 X129.772 Y148.097 E3.59812
G1 X128.564 Y149.136 E3.65112
G1 X127.623 Y149.891 E3.69124
G1 X126.843 Y150.479 E3.72373
G1 X125.756 Y151.256 E3.76817
G1 X125.069 Y151.721 E3.79577
G1 X124.273 Y152.229 E3.82717
G1 X122.891 Y153.054 E3.88071
G1 X121.538 Y153.8 E3.93209
G1 X120.391 Y154.383 E3.97489
G1 X119.924 Y154.606 E3.9921
G1 X118.603 Y155.192 E4.04017
G1 X117.035 Y155.826 E4.09642
G1 X116.04 Y156.192 E4.13168
G1 X115.082 Y156.516 E4.16532
G1 X113.965 Y156.852 E4.20411
G1 X112.243 Y157.317 E4.26344
G1 X111.192 Y157.558 E4.2993
G1 X109.832 Y157.828 E4.34542
G1 X108.975 Y157.976 E4.37434
G1 X107.288 Y158.206 E4.43097
G1 X105.969 Y158.34 E4.47507
G1 X105.014 Y158.411 E4.50692
G1 X103.803 Y158.465 E4.54724
G1 X102.694 Y158.487 E4.58413
G1 X101.791 Y158.465 E4.61417
G1 X100.753 Y158.348 E4.64892
G1 X99.8 Y158.15 E4.68129
G1 X98.867 Y157.87 E4.71369
G1 X98.028 Y157.537 E4.74371
G1 X97.094 Y157.065 E4.77852
G1 X96.269 Y156.55 E4.81087
G1 X95.52 Y155.986 E4.84205
G1 X94.77 Y155.309 E4.87566
G1 X94.113 Y154.6 E4.90781
G1 X93.628 Y153.985 E4.93386
G1 X92.935 Y153.035 E4.97297
G1 X92.485 Y152.392 E4.99907
G1 X91.981 Y151.599 E5.03032
G1 X91.518 Y150.701 E5.06392
G1 X91.151 Y149.801 E5.09625
G1 X90.864 Y148.87 E5.12866
G1 X90.661 Y147.917 E5.16106
G1 X90.543 Y146.957 E5.19323
G1 X90.51 Y146.184 E5.21897
G1 X90.5 Y144.798 E5.26507
G1 X90.517 Y143.494 E5.30844
G1 X90.504 Y140.139 E5.42003
G1 X90.495 Y139.617 E5.43739
G1 X90.458 Y130.738 E5.73271
G1 X90.411 Y128.192 E5.81741
G1 X90.292 Y125.641 E5.90235
G1 X90.107 Y123.169 E5.9848
G1 X89.772 Y119.958 E6.09217
G1 X89.716 Y119.03 E6.1231
G1 X89.702 Y118.166 E6.15184
G1 X89.7 Y116.884 E6.19448
G1 X89.712 Y116.037 E6.22265
G1 X89.777 Y114.999 E6.25724
G1 X90.068 Y112.404 E6.34409
G1 X90.282 Y109.885 E6.42818
G1 X90.418 Y107.44 E6.50962
G1 X90.499 Y103.549 E6.63907
G1 X90.501 Y94.713 E6.93295
G1 X90.51 Y94.117 E6.95278
G1 X90.501 Y89.404 E7.10953
G1 X90.513 Y88.698 E7.13302
G1 X90.573 Y87.725 E7.16544
G1 X90.72 Y86.764 E7.19778
G1 X90.951 Y85.817 E7.2302
G1 X91.265 Y84.895 E7.26259
G1 X91.658 Y84.004 E7.29498
G1 X92.093 Y83.212 E7.32504
G1 X92.534 Y82.539 E7.3518
G1 X93.345 Y81.398 E7.39836
G1 X93.686 Y80.939 E7.41738
G1 X94.303 Y80.183 E7.44983
G0 F6000 X94.589 Y80.462
G1 F1200 X95.244 Y79.79 E7.48104
G1 X95.955 Y79.178 E7.51225
G1 X96.688 Y78.651 E7.54227
G1 X97.525 Y78.154 E7.57465
G1 X98.373 Y77.75 E7.60589
G1 X99.219 Y77.434 E7.63593
G1 X100.157 Y77.174 E7.6683
G1 X101.046 Y77.012 E7.69836
G1 X102.432 Y76.911 E7.74458
G1 X103.038 Y76.912 E7.76473
G1 X103.988 Y76.936 E7.79634
G1 X105.155 Y76.994 E7.8352
G1 X106.333 Y77.088 E7.87451
G1 X107.447 Y77.212 E7.91179
G1 X108.676 Y77.379 E7.95304
G1 X109.692 Y77.55 E7.98731
G1 X110.988 Y77.805 E8.03124
G1 X111.978 Y78.027 E8.06499
G1 X112.705 Y78.209 E8.08991
G1 X113.686 Y78.479 E8.12375
G1 X114.894 Y78.847 E8.16575
G1 X116.094 Y79.253 E8.20789
G1 X117.342 Y79.721 E8.25222
G1 X118.686 Y80.277 E8.3006
G1 X120.045 Y80.896 E8.35026
G1 X121.288 Y81.517 E8.39648
G1 X122.578 Y82.218 E8.44531
G1 X123.336 Y82.665 E8.47458
G1 X124.504 Y83.394 E8.52037
G1 X125.8 Y84.266 E8.57233
G1 X126.782 Y84.971 E8.61253
G1 X127.962 Y85.882 E8.66212
G1 X128.306 Y86.161 E8.67685
G1 X129.131 Y86.866 E8.71294
G1 X129.977 Y87.62 E8.75063
G1 X131.259 Y88.851 E8.80975
G1 X132.118 Y89.743 E8.85094
G1 X132.866 Y90.561 E8.8878
G1 X133.721 Y91.559 E8.93151
G1 X133.955 Y91.845 E8.9438
G1 X134.925 Y93.085 E8.99616
G1 X135.755 Y94.228 E9.04315
G1 X136.595 Y95.477 E9.09321
G1 X137.22 Y96.473 E9.13232
G1 X137.865 Y97.57 E9.17464
G1 X138.556 Y98.848 E9.22297
G1 X138.903 Y99.536 E9.2486
G1 X139.373 Y100.523 E9.28495
G1 X139.818 Y101.532 E9.32163
G1 X140.176 Y102.398 E9.3528
G1 X140.75 Y103.923 E9.407
G1 X141.298 Y105.574 E9.46485
G1 X141.612 Y106.632 E9.50156
G1 X141.764 Y107.194 E9.52092
G1 X141.989 Y108.098 E9.55191
G1 X142.356 Y109.813 E9.61024
G1 X142.564 Y110.987 E9.6499
G1 X142.712 Y111.957 E9.68253
G1 X142.827 Y112.877 E9.71337
G1 X142.975 Y114.467 E9.76648
G1 X143.057 Y115.832 E9.81196
G1 X143.082 Y116.62 E9.83819
G1 X143.092 Y117.911 E9.88113
G1 X143.073 Y118.779 E9.91
G1 X143.019 Y119.901 E9.94736
G1 X142.929 Y121.112 E9.98775
G1 X142.854 Y121.882 E10.01349
G1 X142.702 Y123.114 E10.05477
G1 X142.46 Y124.641 E10.10619
G1 X142.189 Y126.03 E10.15326
G1 X142.073 Y126.55 E10.17098
G1 X141.765 Y127.781 E10.21319
G1 X141.43 Y129.001 E10.25527
G1 X141.125 Y129.967 E10.28896
G1 X140.633 Y131.393 E10.33913
G1 X140.133 Y132.712 E10.38605
G1 X139.935 Y133.199 E10.40354
G1 X139.402 Y134.399 E10.44721
G1 X138.58 Y136.096 E10.50992
G1 X138.132 Y136.944 E10.54182
G1 X137.902 Y137.357 E10.55754
G1 X136.898 Y139.052 E10.62307
G1 X136.273 Y140.02 E10.66139
G1 X135.704 Y140.851 E10.69489
G1 X135.231 Y141.508 E10.72182
G1 X134.203 Y142.85 E10.77804
G1 X133.503 Y143.702 E10.81472
G1 X132.912 Y144.389 E10.84486
G1 X132.326 Y145.036 E10.87389
G1 X131.484 Y145.919 E10.91447
G1 X130.616 Y146.774 E10.955
G1 X129.511 Y147.794 E11.00501
G1 X128.314 Y148.824 E11.05754
G1 X127.382 Y149.572 E11.09728
G1 X126.61 Y150.154 E11.12944
G1 X125.532 Y150.925 E11.17352
G1 X124.854 Y151.384 E11.20075
G1 X124.068 Y151.886 E11.23177
G1 X122.698 Y152.704 E11.28484
G1 X121.357 Y153.443 E11.33577
G1 X120.218 Y154.022 E11.37826
G1 X119.762 Y154.24 E11.39508
G1 X118.453 Y154.821 E11.44271
G1 X116.897 Y155.451 E11.49854
G1 X115.912 Y155.813 E11.53345
G1 X114.967 Y156.133 E11.56663
G1 X113.861 Y156.466 E11.60505
G1 X112.153 Y156.927 E11.66389
G1 X111.114 Y157.166 E11.69935
G1 X109.764 Y157.434 E11.74513
G1 X108.921 Y157.58 E11.77358
G1 X107.248 Y157.808 E11.82974
G1 X105.939 Y157.941 E11.8735
G1 X104.996 Y158.011 E11.90495
G1 X103.795 Y158.065 E11.94494
G1 X102.704 Y158.087 E11.98123
G1 X101.801 Y158.065 E12.01127
G1 X100.834 Y157.956 E12.04364
G1 X99.915 Y157.767 E12.07485
G1 X99.015 Y157.498 E12.10609
G1 X98.176 Y157.165 E12.13611
G1 X97.306 Y156.726 E12.16852
G1 X96.51 Y156.23 E12.19972
G1 X95.761 Y155.666 E12.2309
G1 X95.063 Y155.037 E12.26215
G1 X94.427 Y154.352 E12.29324
G1 X93.951 Y153.749 E12.31879
G1 X93.263 Y152.805 E12.35765
G1 X92.823 Y152.177 E12.38315
G1 X92.319 Y151.384 E12.4144
G1 X91.888 Y150.55 E12.44563
G1 X91.533 Y149.682 E12.47682
G1 X91.255 Y148.786 E12.50802
G1 X91.058 Y147.868 E12.53925
G1 X90.943 Y146.94 E12.57035
G1 X90.91 Y146.181 E12.59562
G1 X90.9 Y144.803 E12.64145
G1 X90.917 Y143.499 E12.68483
G1 X90.904 Y140.137 E12.79665
G1 X90.895 Y139.615 E12.81401
G1 X90.858 Y130.736 E13.10933
G1 X90.811 Y128.173 E13.19459
G1 X90.692 Y125.622 E13.27953
G1 X90.506 Y123.139 E13.36235
G1 X90.171 Y119.934 E13.46953
G1 X90.116 Y119.023 E13.49988
G1 X90.102 Y118.165 E13.52842
G1 X90.1 Y116.889 E13.57086
G1 X90.111 Y116.062 E13.59837
G1 X90.175 Y115.044 E13.6323
G1 X90.466 Y112.449 E13.71915
G1 X90.68 Y109.919 E13.8036
G1 X90.818 Y107.448 E13.88591
G1 X90.899 Y103.557 E14.01535
G1 X90.901 Y94.719 E14.30931
G1 X90.91 Y94.123 E14.32913
G1 X90.901 Y89.41 E14.48589
G1 X90.912 Y88.722 E14.50877
G1 X90.969 Y87.785 E14.53999
G1 X91.109 Y86.858 E14.57118
G1 X91.33 Y85.945 E14.60242
G1 X91.631 Y85.056 E14.63364
G1 X92.009 Y84.197 E14.66485
G1 X92.444 Y83.405 E14.6949
G1 X92.86 Y82.771 E14.72013
G1 X93.666 Y81.636 E14.76643
G1 X93.996 Y81.191 E14.78485
G1 X94.589 Y80.462 E14.81611
G0 F6000 X94.876 Y80.741
G1 F1200 X95.505 Y80.093 E14.84614
G1 X96.189 Y79.503 E14.87619
G1 X96.922 Y78.976 E14.90622
G1 X97.698 Y78.515 E14.93624
G1 X98.513 Y78.125 E14.96629
G1 X99.359 Y77.809 E14.99632
G1 X100.229 Y77.568 E15.02635
G1 X101.118 Y77.406 E15.05641
G1 X102.431 Y77.311 E15.10019
G1 X103.028 Y77.312 E15.12005
G1 X103.968 Y77.335 E15.15132
G1 X105.123 Y77.393 E15.18978
G1 X106.289 Y77.486 E15.22869
G1 X107.393 Y77.608 E15.26563
G1 X108.61 Y77.773 E15.30648
G1 X109.615 Y77.942 E15.34037
G1 X110.9 Y78.195 E15.38393
G1 X111.881 Y78.415 E15.41737
G1 X112.599 Y78.595 E15.44199
G1 X113.57 Y78.862 E15.47549
G1 X114.766 Y79.226 E15.51707
G1 X115.954 Y79.628 E15.55878
G1 X117.189 Y80.091 E15.60265
G1 X118.52 Y80.641 E15.65055
G1 X119.866 Y81.254 E15.69974
G1 X121.097 Y81.869 E15.74551
G1 X122.375 Y82.563 E15.79388
G1 X123.124 Y83.004 E15.82279
G1 X124.281 Y83.726 E15.86815
G1 X125.567 Y84.591 E15.9197
G1 X126.538 Y85.288 E15.95945
G1 X127.71 Y86.193 E16.0087
G1 X128.046 Y86.465 E16.02308
G1 X128.865 Y87.164 E16.05889
G1 X129.7 Y87.909 E16.09611
G1 X130.971 Y89.129 E16.15471
G1 X131.823 Y90.013 E16.19554
G1 X132.562 Y90.821 E16.23196
G1 X133.411 Y91.812 E16.27537
G1 X133.64 Y92.092 E16.2874
G1 X134.601 Y93.32 E16.33926
G1 X135.423 Y94.451 E16.38576
G1 X136.256 Y95.69 E16.43542
G1 X136.875 Y96.676 E16.47414
G1 X137.513 Y97.76 E16.51598
G1 X138.199 Y99.028 E16.56393
G1 X138.542 Y99.708 E16.58926
G1 X139.007 Y100.684 E16.62522
G1 X139.448 Y101.685 E16.6616
G1 X139.802 Y102.539 E16.69234
G1 X140.37 Y104.049 E16.746
G1 X140.915 Y105.688 E16.80345
G1 X141.226 Y106.736 E16.83981
G1 X141.376 Y107.291 E16.85893
G1 X141.598 Y108.182 E16.88947
G1 X141.962 Y109.883 E16.94733
G1 X142.169 Y111.047 E16.98665
G1 X142.315 Y112.007 E17.01895
G1 X142.429 Y112.914 E17.04935
G1 X142.576 Y114.491 E17.10203
G1 X142.657 Y115.845 E17.14715
G1 X142.682 Y116.623 E17.17304
G1 X142.692 Y117.902 E17.21558
G1 X142.673 Y118.76 E17.24412
G1 X142.62 Y119.871 E17.28111
G1 X142.531 Y121.073 E17.3212
G1 X142.457 Y121.833 E17.3466
G1 X142.307 Y123.053 E17.38748
G1 X142.138 Y124.156 E17.4246
G1 X142.067 Y124.564 E17.43837
G1 X141.798 Y125.943 E17.4851
G1 X141.685 Y126.453 E17.50248
G1 X141.379 Y127.675 E17.54437
G1 X141.048 Y128.881 E17.58597
G1 X140.747 Y129.837 E17.6193
G1 X140.259 Y131.251 E17.66906
G1 X139.763 Y132.561 E17.71565
G1 X139.569 Y133.037 E17.73274
G1 X139.042 Y134.225 E17.77597
G1 X138.226 Y135.909 E17.83821
G1 X137.782 Y136.75 E17.86984
G1 X137.558 Y137.153 E17.88517
G1 X136.562 Y138.835 E17.95019
G1 X135.943 Y139.794 E17.98815
G1 X135.379 Y140.618 E18.02136
G1 X134.914 Y141.265 E18.04787
G1 X133.894 Y142.596 E18.10364
G1 X133.2 Y143.441 E18.14001
G1 X132.615 Y144.121 E18.16984
G1 X132.037 Y144.76 E18.1985
G1 X131.203 Y145.634 E18.23868
G1 X130.345 Y146.48 E18.27876
G1 X129.25 Y147.491 E18.32833
G1 X128.063 Y148.512 E18.3804
G1 X127.141 Y149.253 E18.41974
G1 X126.378 Y149.829 E18.45154
G1 X125.307 Y150.594 E18.49532
G1 X124.639 Y151.047 E18.52216
G1 X123.863 Y151.543 E18.55279
G1 X122.505 Y152.354 E18.6054
G1 X121.176 Y153.086 E18.65587
G1 X120.045 Y153.661 E18.69806
G1 X119.6 Y153.874 E18.71447
G1 X118.303 Y154.45 E18.76167
G1 X116.759 Y155.076 E18.81709
G1 X115.784 Y155.434 E18.85163
G1 X114.851 Y155.75 E18.8844
G1 X113.757 Y156.08 E18.9224
G1 X112.063 Y156.537 E18.98076
G1 X111.036 Y156.774 E19.01582
G1 X109.696 Y157.04 E19.06125
G1 X108.867 Y157.184 E19.08924
G1 X107.208 Y157.41 E19.14493
G1 X105.909 Y157.542 E19.18836
G1 X104.978 Y157.611 E19.21941
G1 X103.787 Y157.665 E19.25906
G1 X102.714 Y157.687 E19.29476
G1 X101.811 Y157.665 E19.3248
G1 X100.914 Y157.564 E19.35482
G1 X100.029 Y157.384 E19.38486
G1 X99.163 Y157.126 E19.41491
G1 X98.324 Y156.793 E19.44494
G1 X97.517 Y156.386 E19.475
G1 X96.75 Y155.91 E19.50502
G1 X96.028 Y155.368 E19.53505
G1 X95.356 Y154.765 E19.56508
G1 X94.741 Y154.104 E19.59511
G1 X94.274 Y153.513 E19.62016
G1 X93.59 Y152.575 E19.65877
G1 X93.16 Y151.962 E19.68368
G1 X92.674 Y151.2 E19.71374
G1 X92.258 Y150.398 E19.74379
G1 X91.915 Y149.563 E19.77381
G1 X91.646 Y148.701 E19.80384
G1 X91.455 Y147.818 E19.83389
G1 X91.343 Y146.922 E19.86393
G1 X91.31 Y146.178 E19.88869
G1 X91.3 Y144.808 E19.93426
G1 X91.317 Y143.504 E19.97764
G1 X91.304 Y140.135 E20.08969
G1 X91.295 Y139.613 E20.10706
G1 X91.258 Y130.734 E20.40238
G1 X91.211 Y128.154 E20.4882
G1 X91.092 Y125.603 E20.57314
G1 X90.905 Y123.109 E20.65632
G1 X90.57 Y119.91 E20.7633
G1 X90.516 Y119.016 E20.79309
G1 X90.502 Y118.164 E20.82143
G1 X90.5 Y116.894 E20.86367
G1 X90.51 Y116.087 E20.89052
G1 X90.573 Y115.089 E20.92378
G1 X90.864 Y112.494 E21.01063
G1 X91.078 Y109.953 E21.09544
G1 X91.218 Y107.456 E21.17862
