;FLAVOR:Marlin
;TIME:5737
;Filament used: 3.96244m
;Layer height: 0.2
;MINX:81
;MINY:73
;MINZ:0.2
;MAXX:154
;MAXY:162
;MAXZ:5.6
;TARGET_MACHINE.NAME:Creality Ender-3
;Generated with Cura_SteamEngine 5.7.0
M140 S60
M105
M190 S60
M104 S195
M105
M109 S195
M82 ;absolute extrusion mode
; Ender 3 Custom Start G-code
G92 E0 ; Reset Extruder
G28 ; Home all axes
G1 Z2.0 F3000 ; Move Z Axis up little to prevent scratching of Heat Bed
G1 X0.1 Y20 Z0.3 F5000.0 ; Move to start position
G1 X0.1 Y200.0 Z0.3 F1500.0 E15 ; Draw the first line
G1 X0.4 Y200.0 Z0.3 F5000.0 ; Move to side a little
G1 X0.4 Y20 Z0.3 F1500.0 E30 ; Draw the second line
G92 E0 ; Reset Extruder
G1 Z2.0 F3000 ; Move Z Axis up little to prevent scratching of Heat Bed
G1 X5 Y20 Z0.3 F5000.0 ; Move over to prevent blob squish
G92 E0
G92 E0
G1 F2400 E-3
;LAYER_COUNT:28
;LAYER:0
M107
G0 F6000 X83.731 Y76.765 Z0.2
;TYPE:SKIRT
G1 F2400 E0
G1 F1200 X84.456 Y76.013 E0.03474
G1 X85.192 Y75.376 E0.06712
G1 X85.924 Y74.846 E0.09718
G1 X86.821 Y74.311 E0.13191
G1 X87.699 Y73.89 E0.1643
G1 X88.612 Y73.548 E0.19673
G1 X89.549 Y73.289 E0.22906
G1 X90.516 Y73.111 E0.26176
G1 X91.655 Y73.015 E0.29978
G1 X92.312 Y73 E0.32164
G1 X142.304 Y73 E1.98438
G1 X143.184 Y73.013 E2.01365
G1 X144.156 Y73.072 E2.04604
G1 X145.119 Y73.218 E2.07843
G1 X146.066 Y73.449 E2.11086
G1 X146.954 Y73.749 E2.14203
G1 X147.846 Y74.139 E2.17441
G1 X148.729 Y74.626 E2.20795
G1 X149.48 Y75.128 E2.23799
G1 X150.295 Y75.786 E2.27283
G1 X150.993 Y76.464 E2.3052
G1 X151.629 Y77.201 E2.33758
G1 X152.199 Y77.991 E2.36998
G1 X152.661 Y78.767 E2.40001
G1 X153.115 Y79.709 E2.43479
G1 X153.444 Y80.587 E2.46598
G1 X153.713 Y81.559 E2.49952
G1 X153.89 Y82.525 E2.53219
G1 X153.985 Y83.655 E2.5699
G1 X154 Y84.33 E2.59236
G1 X153.999 Y150.4 E4.78986
G1 X153.988 Y151.163 E4.81524
G1 X153.931 Y152.136 E4.84766
G1 X153.786 Y153.099 E4.88005
G1 X153.557 Y154.045 E4.91242
G1 X153.246 Y154.969 E4.94485
G1 X152.854 Y155.86 E4.97722
G1 X152.386 Y156.712 E5.00955
G1 X151.864 Y157.493 E5.0408
G1 X151.231 Y158.278 E5.07434
G1 X150.606 Y158.929 E5.10435
G1 X149.817 Y159.617 E5.13917
G1 X149.057 Y160.167 E5.17037
G1 X148.19 Y160.684 E5.20395
G1 X147.312 Y161.106 E5.23635
G1 X146.401 Y161.448 E5.26871
G1 X145.462 Y161.709 E5.30113
G1 X144.496 Y161.887 E5.3338
G1 X143.345 Y161.985 E5.37222
G1 X142.67 Y162 E5.39468
G1 X92.564 Y161.999 E7.06121
G1 X91.831 Y161.988 E7.08559
G1 X90.859 Y161.931 E7.11797
G1 X89.896 Y161.785 E7.15037
G1 X88.95 Y161.556 E7.18274
G1 X88.026 Y161.244 E7.21518
G1 X87.136 Y160.852 E7.24753
G1 X86.313 Y160.401 E7.27874
G1 X85.474 Y159.84 E7.31231
G1 X84.77 Y159.274 E7.34235
G1 X84.017 Y158.549 E7.37712
G1 X83.38 Y157.813 E7.40949
G1 X82.85 Y157.082 E7.43952
G1 X82.314 Y156.185 E7.47428
G1 X81.892 Y155.307 E7.50668
G1 X81.55 Y154.395 E7.53908
G1 X81.29 Y153.457 E7.57145
G1 X81.112 Y152.488 E7.60422
G1 X81.014 Y151.309 E7.64357
G1 X81 Y150.658 E7.66522
G1 X81.001 Y84.525 E9.86482
G1 X81.012 Y83.825 E9.8881
G1 X81.07 Y82.852 E9.92052
G1 X81.216 Y81.889 E9.95292
G1 X81.446 Y80.943 E9.9853
G1 X81.759 Y80.02 E10.01771
G1 X82.151 Y79.13 E10.05006
G1 X82.621 Y78.277 E10.08245
G1 X83.164 Y77.469 E10.11483
G1 X83.731 Y76.765 E10.1449
G0 F6000 X84.043 Y77.016
G1 F1200 X84.718 Y76.315 E10.17726
G1 X85.427 Y75.7 E10.20848
G1 X86.159 Y75.17 E10.23854
G1 X86.995 Y74.671 E10.27092
G1 X87.84 Y74.264 E10.30212
G1 X88.719 Y73.933 E10.33336
G1 X89.622 Y73.682 E10.36453
G1 X90.55 Y73.51 E10.39592
G1 X91.689 Y73.414 E10.43394
G1 X92.321 Y73.4 E10.45496
G1 X142.298 Y73.4 E12.1172
G1 X143.16 Y73.412 E12.14588
G1 X144.097 Y73.468 E12.1771
G1 X145.025 Y73.607 E12.20831
G1 X145.938 Y73.828 E12.23955
G1 X146.794 Y74.116 E12.26959
G1 X147.686 Y74.506 E12.30197
G1 X148.507 Y74.959 E12.33316
G1 X149.258 Y75.461 E12.3632
G1 X150.017 Y76.073 E12.39563
G1 X150.691 Y76.726 E12.42684
G1 X151.305 Y77.435 E12.45804
G1 X151.855 Y78.196 E12.48927
G1 X152.317 Y78.972 E12.51931
G1 X152.74 Y79.849 E12.55169
G1 X153.069 Y80.727 E12.58288
G1 X153.32 Y81.632 E12.61411
G1 X153.491 Y82.559 E12.64546
G1 X153.586 Y83.689 E12.68318
G1 X153.6 Y84.33 E12.70451
G1 X153.599 Y150.395 E14.90184
G1 X153.589 Y151.14 E14.92662
G1 X153.535 Y152.077 E14.95783
G1 X153.397 Y153.006 E14.98907
G1 X153.178 Y153.918 E15.02027
G1 X152.88 Y154.808 E15.05148
G1 X152.503 Y155.668 E15.08272
G1 X152.053 Y156.49 E15.11388
G1 X151.531 Y157.271 E15.14513
G1 X150.942 Y158.001 E15.17633
G1 X150.317 Y158.652 E15.20634
G1 X149.582 Y159.293 E15.23878
G1 X148.822 Y159.843 E15.26998
G1 X148.016 Y160.324 E15.3012
G1 X147.171 Y160.732 E15.33241
G1 X146.293 Y161.063 E15.36362
G1 X145.389 Y161.316 E15.39484
G1 X144.462 Y161.488 E15.4262
G1 X143.311 Y161.586 E15.46462
G1 X142.67 Y161.6 E15.48594
G1 X92.57 Y161.599 E17.15228
G1 X91.854 Y161.589 E17.17609
G1 X90.918 Y161.535 E17.20728
G1 X89.989 Y161.396 E17.23852
G1 X89.077 Y161.177 E17.26972
G1 X88.187 Y160.878 E17.30094
G1 X87.328 Y160.501 E17.33214
G1 X86.505 Y160.05 E17.36336
G1 X85.725 Y159.528 E17.39457
G1 X85.021 Y158.962 E17.42462
G1 X84.319 Y158.287 E17.45701
G1 X83.704 Y157.578 E17.48823
G1 X83.174 Y156.847 E17.51826
G1 X82.674 Y156.011 E17.55066
G1 X82.266 Y155.166 E17.58187
G1 X81.935 Y154.288 E17.61307
G1 X81.683 Y153.384 E17.64429
G1 X81.511 Y152.455 E17.67571
G1 X81.413 Y151.276 E17.71506
G1 X81.4 Y150.658 E17.73562
G1 X81.401 Y84.531 E19.93501
G1 X81.411 Y83.848 E19.95773
G1 X81.466 Y82.911 E19.98895
G1 X81.605 Y81.983 E20.02016
G1 X81.825 Y81.071 E20.05136
G1 X82.125 Y80.181 E20.0826
G1 X82.502 Y79.322 E20.1138
G1 X82.953 Y78.5 E20.14499
G1 X83.476 Y77.72 E20.17622
G1 X84.043 Y77.016 E20.20629
G0 F6000 X84.355 Y77.267
G1 F1200 X84.981 Y76.617 E20.2363
G1 X85.662 Y76.024 E20.26634
G1 X86.394 Y75.494 E20.29639
G1 X87.169 Y75.031 E20.32642
G1 X87.982 Y74.638 E20.35645
G1 X88.827 Y74.318 E20.38651
G1 X89.696 Y74.075 E20.41652
G1 X90.584 Y73.909 E20.44657
G1 X91.723 Y73.813 E20.48458
G1 X92.33 Y73.8 E20.50478
G1 X142.293 Y73.8 E22.16655
G1 X143.137 Y73.811 E22.19463
G1 X144.039 Y73.864 E22.22468
G1 X144.932 Y73.996 E22.2547
G1 X145.81 Y74.207 E22.28474
G1 X146.666 Y74.495 E22.31478
G1 X147.493 Y74.857 E22.3448
G1 X148.285 Y75.292 E22.37486
G1 X149.036 Y75.794 E22.4049
G1 X149.739 Y76.361 E22.43494
G1 X150.389 Y76.988 E22.46498
G1 X150.981 Y77.67 E22.49501
G1 X151.511 Y78.401 E22.52505
G1 X151.973 Y79.177 E22.55508
G1 X152.366 Y79.99 E22.58512
G1 X152.684 Y80.835 E22.61515
G1 X152.927 Y81.705 E22.64519
G1 X153.092 Y82.593 E22.67523
G1 X153.187 Y83.723 E22.71295
G1 X153.2 Y84.33 E22.73314
G1 X153.199 Y150.39 E24.93031
G1 X153.19 Y151.117 E24.95449
G1 X153.139 Y152.019 E24.98454
G1 X153.008 Y152.913 E25.01459
G1 X152.799 Y153.791 E25.04461
G1 X152.513 Y154.648 E25.07466
G1 X152.152 Y155.476 E25.1047
G1 X151.72 Y156.268 E25.1347
G1 X151.219 Y157.02 E25.16476
G1 X150.653 Y157.724 E25.1948
G1 X150.028 Y158.375 E25.22482
G1 X149.347 Y158.969 E25.25487
G1 X148.616 Y159.5 E25.28493
G1 X147.842 Y159.964 E25.31494
G1 X147.029 Y160.358 E25.34499
G1 X146.185 Y160.678 E25.37501
G1 X145.315 Y160.923 E25.40507
G1 X144.428 Y161.089 E25.43509
G1 X143.277 Y161.187 E25.47351
G1 X142.67 Y161.2 E25.4937
G1 X92.575 Y161.199 E27.15987
G1 X91.877 Y161.19 E27.18308
G1 X90.976 Y161.139 E27.2131
G1 X90.082 Y161.007 E27.24316
G1 X89.204 Y160.798 E27.27318
G1 X88.347 Y160.511 E27.30323
G1 X87.52 Y160.15 E27.33325
G1 X86.727 Y159.717 E27.3633
G1 X85.976 Y159.216 E27.39332
G1 X85.272 Y158.65 E27.42337
G1 X84.621 Y158.024 E27.45341
G1 X84.028 Y157.343 E27.48344
G1 X83.498 Y156.612 E27.51347
G1 X83.034 Y155.837 E27.54352
G1 X82.64 Y155.024 E27.57356
G1 X82.32 Y154.18 E27.60359
G1 X82.076 Y153.31 E27.63364
G1 X81.91 Y152.422 E27.66369
G1 X81.813 Y151.267 E27.70224
G1 X81.8 Y150.658 E27.7225
G1 X81.801 Y84.536 E29.92172
G1 X81.81 Y83.871 E29.94384
G1 X81.862 Y82.969 E29.97389
G1 X81.994 Y82.076 E30.00392
G1 X82.204 Y81.198 E30.03394
G1 X82.491 Y80.341 E30.064
G1 X82.853 Y79.514 E30.09403
G1 X83.286 Y78.722 E30.12405
G1 X83.788 Y77.971 E30.1541
G1 X84.355 Y77.267 E30.18416
G1 F2400 E27.18416
;MESH:Corpo2.stl
G0 F6000 X91.335 Y84.414
G0 X92.414 Y84.414
G0 X115.647 Y119.087
G0 X117.526 Y121.307
;TYPE:WALL-INNER
G1 F2400 E30.18416
G1 F1200 X117.259 Y121.299 E30.19305
G1 X116.672 Y121.212 E30.21278
G1 X115.948 Y120.995 E30.23792
G1 X115.348 Y120.629 E30.2613
G1 X114.922 Y120.296 E30.27928
G1 X114.605 Y119.963 E30.29457
G1 X114.241 Y119.474 E30.31485
G1 X114.085 Y119.18 E30.32592
G1 X113.894 Y118.708 E30.34285
G1 X113.77 Y118.259 E30.35835
G1 X113.677 Y117.489 E30.38414
G1 X113.763 Y116.785 E30.40773
G1 X113.889 Y116.308 E30.42414
G1 X114.075 Y115.848 E30.44064
G1 X114.311 Y115.429 E30.45664
G1 X114.598 Y115.044 E30.47261
G1 X114.938 Y114.69 E30.48894
G1 X115.319 Y114.385 E30.50517
G1 X115.737 Y114.13 E30.52145
G1 X116.2 Y113.92 E30.53836
G1 X116.69 Y113.784 E30.55528
G1 X117.167 Y113.712 E30.57132
G1 X117.624 Y113.701 E30.58653
G1 X118.098 Y113.746 E30.60236
G1 X118.561 Y113.85 E30.61815
G1 X119.02 Y114.009 E30.6343
G1 X119.468 Y114.249 E30.65121
G1 X119.947 Y114.579 E30.67055
G1 X120.164 Y114.775 E30.68028
G1 X120.629 Y115.329 E30.70433
G1 X120.798 Y115.606 E30.71513
G1 X121.019 Y116.062 E30.73198
G1 X121.172 Y116.524 E30.74817
G1 X121.269 Y117.001 E30.76436
G1 X121.3 Y117.496 E30.78085
G1 X121.269 Y117.989 E30.79728
G1 X121.178 Y118.465 E30.8134
G1 X120.941 Y119.165 E30.83798
G1 X120.546 Y119.771 E30.86204
G1 X120.238 Y120.138 E30.87798
G1 X119.851 Y120.487 E30.89531
G1 X119.436 Y120.77 E30.91202
G1 X119.078 Y120.955 E30.92542
G1 X118.485 Y121.179 E30.9465
G1 X118.213 Y121.241 E30.95578
G1 X117.526 Y121.307 E30.97874
G0 F6000 X117.421 Y120.915
G1 F1200 X116.712 Y120.807 E31.00259
G1 X116.132 Y120.635 E31.02271
G1 X115.573 Y120.299 E31.0444
G1 X115.232 Y120.042 E31.05861
G1 X114.911 Y119.704 E31.07411
G1 X114.524 Y119.185 E31.09564
G1 X114.273 Y118.58 E31.11743
G1 X114.16 Y118.152 E31.13215
G1 X114.079 Y117.494 E31.1542
G1 X114.16 Y116.863 E31.17536
G1 X114.269 Y116.432 E31.19015
G1 X114.435 Y116.022 E31.20486
G1 X114.646 Y115.647 E31.21917
G1 X114.903 Y115.303 E31.23345
G1 X115.202 Y114.985 E31.24797
G1 X115.549 Y114.712 E31.26265
G1 X115.922 Y114.485 E31.27718
G1 X116.35 Y114.296 E31.29274
G1 X116.712 Y114.189 E31.30529
G1 X117.197 Y114.111 E31.32163
G1 X117.611 Y114.1 E31.33541
G1 X118.035 Y114.141 E31.34958
G1 X118.45 Y114.235 E31.36373
G1 X118.904 Y114.4 E31.37979
G1 X119.26 Y114.591 E31.39323
G1 X119.8 Y114.962 E31.41502
G1 X120.361 Y115.632 E31.44409
G1 X120.648 Y116.213 E31.46564
G1 X120.789 Y116.627 E31.48019
G1 X120.872 Y117.054 E31.49465
G1 X120.904 Y117.496 E31.50939
G1 X120.872 Y117.936 E31.52407
G1 X120.786 Y118.368 E31.53872
G1 X120.642 Y118.811 E31.55421
G1 X120.532 Y119.06 E31.56326
G1 X120.226 Y119.531 E31.58195
G1 X119.952 Y119.857 E31.59611
G1 X119.607 Y120.17 E31.6116
G1 X119.237 Y120.423 E31.62651
G1 X118.909 Y120.593 E31.6388
G1 X118.257 Y120.838 E31.66196
G1 X117.421 Y120.915 E31.68989
G0 F6000 X117.436 Y120.514
G1 F1200 X116.809 Y120.419 E31.71098
G1 X116.285 Y120.261 E31.72918
G1 X115.798 Y119.968 E31.74809
G1 X115.47 Y119.713 E31.76191
G1 X115.216 Y119.446 E31.77416
G1 X114.872 Y118.984 E31.79332
G1 X114.652 Y118.452 E31.81247
G1 X114.553 Y118.077 E31.82537
G1 X114.482 Y117.496 E31.84484
G1 X114.553 Y116.938 E31.86354
G1 X114.649 Y116.557 E31.87661
G1 X114.795 Y116.196 E31.88956
G1 X114.948 Y115.92 E31.90006
G1 X115.208 Y115.561 E31.9148
G1 X115.477 Y115.281 E31.92772
G1 X115.778 Y115.04 E31.94054
G1 X116.106 Y114.84 E31.95332
G1 X116.439 Y114.69 E31.96547
G1 X116.809 Y114.577 E31.97833
G1 X117.226 Y114.51 E31.99238
G1 X117.598 Y114.5 E32.00476
G1 X117.971 Y114.534 E32.01722
G1 X118.339 Y114.619 E32.02978
G1 X118.734 Y114.762 E32.04375
G1 X119.052 Y114.933 E32.05576
G1 X119.53 Y115.261 E32.07504
G1 X120.021 Y115.855 E32.10067
G1 X120.278 Y116.365 E32.11967
G1 X120.399 Y116.73 E32.13246
G1 X120.476 Y117.107 E32.14526
G1 X120.503 Y117.496 E32.15822
G1 X120.476 Y117.884 E32.17116
G1 X120.413 Y118.208 E32.18214
G1 X120.22 Y118.808 E32.2031
G1 X119.905 Y119.292 E32.22231
G1 X119.663 Y119.576 E32.23472
G1 X119.363 Y119.853 E32.2483
G1 X119.038 Y120.076 E32.26141
G1 X118.74 Y120.231 E32.27258
G1 X118.174 Y120.442 E32.29267
G1 X117.436 Y120.514 E32.31733
G0 F6000 X117.412 Y120.108
G1 F1200 X116.933 Y120.037 E32.33344
G1 X116.446 Y119.893 E32.35033
G1 X116.022 Y119.637 E32.3668
G1 X115.744 Y119.422 E32.37849
G1 X115.521 Y119.188 E32.38924
G1 X115.219 Y118.782 E32.40607
G1 X115.031 Y118.324 E32.42254
G1 X114.94 Y117.961 E32.43499
G1 X114.888 Y117.494 E32.45062
G1 X114.953 Y116.978 E32.46791
G1 X115.029 Y116.681 E32.47811
G1 X115.155 Y116.37 E32.48927
G1 X115.338 Y116.053 E32.50145
G1 X115.538 Y115.793 E32.51236
G1 X115.747 Y115.576 E32.52238
G1 X116.007 Y115.368 E32.53345
G1 X116.291 Y115.195 E32.54451
G1 X116.612 Y115.052 E32.5562
G1 X116.906 Y114.965 E32.5664
G1 X117.255 Y114.909 E32.57815
G1 X117.584 Y114.9 E32.5891
G1 X117.87 Y114.926 E32.59865
G1 X118.193 Y114.994 E32.60963
G1 X118.564 Y115.124 E32.62271
G1 X118.844 Y115.275 E32.63329
G1 X119.258 Y115.559 E32.64998
G1 X119.689 Y116.072 E32.67227
G1 X119.908 Y116.516 E32.68874
G1 X120.02 Y116.866 E32.70096
G1 X120.079 Y117.16 E32.71093
G1 X120.1 Y117.496 E32.72213
G1 X120.083 Y117.79 E32.73192
G1 X120.021 Y118.128 E32.74335
G1 X119.856 Y118.639 E32.76121
G1 X119.585 Y119.052 E32.77764
G1 X119.351 Y119.323 E32.78955
G1 X119.119 Y119.536 E32.80003
G1 X118.862 Y119.715 E32.81044
G1 X118.57 Y119.868 E32.82141
G1 X118.098 Y120.042 E32.83814
G1 X117.412 Y120.108 E32.86106
G1 F2400 E29.86106
G0 F6000 X117.365 Y120.408
G0 X141.2 Y149.2
G1 F2400 E32.86106
G1 F1200 X141.2 Y85.8 E34.96975
G1 X93.8 Y85.8 E36.54628
G1 X93.8 Y149.2 E38.65498
G1 X141.2 Y149.2 E40.23151
G0 F6000 X141.6 Y149.6
G1 F1200 X141.6 Y85.4 E42.36681
G1 X93.4 Y85.4 E43.96995
G1 X93.4 Y149.6 E46.10525
G1 X141.6 Y149.6 E47.70839
G0 F6000 X142 Y150
G1 F1200 X142 Y85 E49.87029
G1 X93 Y85 E51.50004
G1 X93 Y150 E53.66195
G1 X142 Y150 E55.2917
G0 F6000 X142.4 Y150.4
G1 F1200 X142.4 Y84.6 E57.48021
G1 X92.6 Y84.6 E59.13657
G1 X92.6 Y150.4 E61.32508
G1 X142.4 Y150.4 E62.98144
G0 F6000 X142.8 Y150.8
;TYPE:WALL-OUTER
G1 F1200 X142.8 Y84.2 E65.19656
G1 X92.2 Y84.2 E66.87953
G1 X92.2 Y150.8 E69.09465
G1 X142.8 Y150.8 E70.77762
G0 F6000 X142.8 Y150.6
G1 F2400 E67.77762
G0 F6000 X142.13 Y150.13
G0 X117.324 Y120.401
G0 X117.433 Y119.708
G1 F2400 E70.77762
G1 F1200 X117.003 Y119.643 E70.79208
G1 X116.615 Y119.525 E70.80557
G1 X116.247 Y119.306 E70.81981
G1 X116.018 Y119.13 E70.82942
G1 X115.827 Y118.93 E70.83862
G1 X115.568 Y118.577 E70.85318
G1 X115.41 Y118.196 E70.8669
G1 X115.337 Y117.913 E70.87662
G1 X115.288 Y117.508 E70.89019
G1 X115.341 Y117.075 E70.90469
G1 X115.409 Y116.805 E70.91396
G1 X115.515 Y116.544 E70.92332
G1 X115.652 Y116.302 E70.93257
G1 X115.827 Y116.069 E70.94227
G1 X116.027 Y115.863 E70.95182
G1 X116.247 Y115.689 E70.96114
G1 X116.485 Y115.545 E70.9704
G1 X116.742 Y115.43 E70.97976
G1 X117.003 Y115.353 E70.98881
G1 X117.285 Y115.308 E70.99831
G1 X117.584 Y115.3 E71.00826
G1 X117.857 Y115.328 E71.01739
G1 X118.116 Y115.387 E71.02622
G1 X118.394 Y115.486 E71.03604
G1 X118.646 Y115.623 E71.04558
G1 X118.982 Y115.855 E71.05916
G1 X119.345 Y116.284 E71.07785
G1 X119.538 Y116.668 E71.09214
G1 X119.626 Y116.936 E71.10152
G1 X119.683 Y117.213 E71.11093
G1 X119.7 Y117.509 E71.12079
G1 X119.683 Y117.779 E71.12979
G1 X119.626 Y118.06 E71.13933
G1 X119.493 Y118.459 E71.15331
G1 X119.265 Y118.812 E71.16729
G1 X119.077 Y119.031 E71.17689
G1 X118.875 Y119.219 E71.18607
G1 X118.64 Y119.382 E71.19558
